assets/icons/touch.svg

<?xml version="1.0" encoding="UTF-8"?>
<svg xmlns="http://www.w3.org/2000/svg" width="111" height="135" viewBox="0 0 111 135" fill="none"> <g clip-path="url(#clip0_1038_115)"> <path d="M110.319 111.159L109.799 108.489C108.664 101.908 108.425 95.204 109.089 88.559C110.381 75.662 109.424 62.6384 106.259 50.069L102.939 37.659C102.528 35.9043 101.742 34.2597 100.633 32.8388C99.5248 31.4178 98.1211 30.2545 96.5191 29.429C90.4591 26.429 82.5191 28.749 80.0791 29.609C79.4582 29.112 78.788 28.6798 78.0791 28.319C72.0191 25.319 64.0791 27.639 61.6291 28.499C61.0073 28.0032 60.3373 27.571 59.6291 27.209C54.9091 24.859 49.0691 25.759 45.5391 26.679L40.8891 9.38904C38.7791 1.49904 31.9991 -1.10096 26.3791 0.409037C24.6359 0.871983 23.0215 1.72707 21.6591 2.90904C19.9791 4.36904 13.6591 10.659 12.0791 12.509C9.79914 15.209 8.69914 19.099 9.99914 23.779L18.8191 56.689C17.3346 56.7572 15.8786 57.1204 14.5359 57.7573C13.1933 58.3943 11.991 59.2924 10.9991 60.399C10.4691 61.009 4.38914 66.939 2.99914 68.399C2.32651 69.0838 1.75113 69.8577 1.28914 70.699C-1.30086 75.529 -0.240856 82.539 6.78914 86.609C28.1091 98.919 39.8691 112.839 44.9391 131.759L45.6991 134.589L101.999 119.509L110.319 111.159Z" fill="#31373E"/> <path d="M48.0499 130.5C42.6799 110.86 30.4499 96.4199 8.45986 83.7199C3.02986 80.5799 2.45986 75.5799 4.22986 72.2799C4.53422 71.7111 4.91436 71.1863 5.35986 70.7199C5.99986 69.9999 7.91986 68.1699 9.57986 66.5299C12.1199 63.9999 13.1799 62.9999 13.4999 62.6099C14.1977 61.8318 15.0434 61.2004 15.9876 60.7523C16.9319 60.3042 17.9558 60.0484 18.9999 59.9999L23.0699 59.7399L13.1799 22.9199C12.0799 18.8299 13.3599 16.1699 14.6299 14.6599C15.8999 13.1499 22.1799 6.88986 23.8599 5.41986C25.4152 4.07497 27.4037 3.33642 29.4599 3.33986C33.4599 3.33986 36.4599 5.91986 37.6699 10.2499L43.1599 30.7399L46.3699 29.9099C48.3791 29.3664 50.4486 29.0775 52.5299 29.0499C54.457 28.9966 56.3702 29.3902 58.1199 30.1999C58.6288 30.4586 59.1111 30.7668 59.5599 31.1199L60.9999 32.2499L62.7199 31.6499C65.3838 30.7187 68.1785 30.2158 70.9999 30.1599C72.9334 30.1068 74.8531 30.5003 76.6099 31.3099C77.1175 31.5709 77.5996 31.8789 78.0499 32.2299L79.4799 33.3599L81.2099 32.7599C83.8637 31.8297 86.6483 31.3268 89.4599 31.2699C91.37 31.2258 93.265 31.6191 94.9999 32.4199C96.1832 33.0289 97.2167 33.8928 98.0259 34.9494C98.8352 36.0059 99.4001 37.2287 99.6799 38.5299L103 50.9299C106.055 63.0887 106.982 75.6847 105.74 88.1599C105.029 95.1612 105.281 102.227 106.49 109.16L106.67 110.06L100.21 116.52L48.0499 130.5Z" fill="white"/> <path d="M80.3984 32.5988L79.5884 33.1788C75.1184 27.8188 64.5284 30.5188 60.7684 31.7088C55.8484 26.6588 46.3184 29.3488 43.4684 30.3188C41.5284 23.0888 39.5384 15.6488 38.0584 10.1388C34.7784 -2.10123 17.8384 2.43877 21.1184 14.6788C25.1184 29.5588 36.1184 70.5088 36.1184 70.5088C34.7084 65.2388 31.1184 63.8288 25.7484 61.1788C12.7484 54.7088 5.86842 69.5088 16.6384 75.7288C40.6384 89.5988 51.3484 104.729 56.1484 122.659L106.928 108.999C105.73 102.122 105.481 95.1132 106.188 88.1688C107.42 75.6499 106.49 63.0124 103.438 50.8088L100.108 38.3788C96.7784 25.9988 80.3984 32.5988 80.3984 32.5988Z" fill="white"/> <path d="M96.5194 29.429C90.4594 26.429 82.5194 28.749 80.0794 29.609C79.4584 29.112 78.7883 28.6798 78.0794 28.319C72.0194 25.319 64.0794 27.639 61.6294 28.499C61.0076 28.0032 60.3376 27.571 59.6294 27.209C54.9094 24.859 49.0694 25.759 45.5394 26.679L40.8894 9.38904C38.7794 1.49904 31.9994 -1.10096 26.3794 0.409037C20.7594 1.91904 16.1894 7.55904 18.2994 15.409L30.4394 60.749C29.3689 59.9058 28.2164 59.1721 26.9994 58.559C18.6694 54.429 12.1494 57.629 9.6094 62.359C7.0694 67.089 8.0994 74.199 15.1394 78.259C36.4494 90.569 48.2094 104.499 53.2794 123.419L54.0394 126.249L110.319 111.159L109.799 108.489C108.665 101.908 108.426 95.204 109.089 88.559C110.382 75.662 109.424 62.6384 106.259 50.069L102.939 37.659C102.529 35.9043 101.742 34.2597 100.634 32.8388C99.5251 31.4178 98.1214 30.2545 96.5194 29.429V29.429ZM100.619 51.599C103.559 63.4436 104.458 75.7023 103.279 87.849C102.614 94.1893 102.732 100.587 103.629 106.899L58.1294 119.089C52.2394 99.999 39.7794 85.739 18.0594 73.199C14.0594 70.889 13.5694 67.399 14.7894 65.119C16.0094 62.839 19.2094 61.219 24.4194 63.799C29.0694 66.109 34.4194 71.129 35.5994 75.489L40.1194 74.269L23.9994 13.919C22.8194 9.52904 25.1294 6.80904 27.9394 6.05904C30.7494 5.30904 34.1094 6.50904 35.2894 10.899L47.1694 55.429L52.8194 53.919L46.9994 32.319C49.8794 31.579 54.0894 30.999 56.9994 32.449C57.8654 32.9088 58.618 33.5557 59.2027 34.3427C59.7874 35.1298 60.1893 36.0372 60.3794 36.999L64.0894 50.799L69.7394 49.279L65.9994 35.439C65.8114 34.7586 65.5809 34.0907 65.3094 33.439C68.1794 32.679 72.4894 32.059 75.4394 33.529C76.2975 33.9863 77.0438 34.6279 77.6247 35.4076C78.2056 36.1873 78.6068 37.086 78.7994 38.039L82.5094 51.879L88.1594 50.359L84.4794 36.549C84.2955 35.8673 84.065 35.1991 83.7894 34.549C86.6494 33.789 90.9394 33.169 93.9094 34.649C94.7721 35.1029 95.523 35.7431 96.1076 36.5232C96.6922 37.3033 97.0959 38.2036 97.2894 39.159L100.619 51.599Z" fill="#31373E"/> </g> <defs> <clipPath id="clip0_1038_115"> <rect width="110.32" height="134.59" fill="white"/> </clipPath> </defs> </svg>

<svg xmlns="http://www.w3.org/2000/svg" width="111" height="135" fill="none"><g clip-path="url(#a)"><path d="m110.319 111.159-.52-2.67a73.982 73.982 0 0 1-.71-19.93 111.935 111.935 0 0 0-2.83-38.49l-3.32-12.41a12.446 12.446 0 0 0-6.42-8.23c-6.06-3-14-.68-16.44.18-.62-.497-1.291-.93-2-1.29-6.06-3-14-.68-16.45.18a11.884 11.884 0 0 0-2-1.29c-4.72-2.35-10.56-1.45-14.09-.53l-4.65-17.29C38.78 1.499 32-1.101 26.38.409a11.84 11.84 0 0 0-4.72 2.5c-1.68 1.46-8 7.75-9.58 9.6-2.28 2.7-3.38 6.59-2.08 11.27l8.82 32.91a11.193 11.193 0 0 0-7.82 3.71c-.53.61-6.61 6.54-8 8a10.483 10.483 0 0 0-1.71 2.3c-2.59 4.83-1.53 11.84 5.5 15.91 21.32 12.31 33.08 26.23 38.15 45.15l.76 2.83 56.3-15.08 8.32-8.35Z" fill="#31373E"/><path d="M48.05 130.5c-5.37-19.64-17.6-34.08-39.59-46.78-5.43-3.14-6-8.14-4.23-11.44a7.126 7.126 0 0 1 1.13-1.56C6 70 7.92 68.17 9.58 66.53c2.54-2.53 3.6-3.53 3.92-3.92A7.879 7.879 0 0 1 19 60l4.07-.26-9.89-36.82c-1.1-4.09.18-6.75 1.45-8.26 1.27-1.51 7.55-7.77 9.23-9.24a8.54 8.54 0 0 1 5.6-2.08c4 0 7 2.58 8.21 6.91l5.49 20.49 3.21-.83a24.852 24.852 0 0 1 6.16-.86c1.927-.053 3.84.34 5.59 1.15.509.259.991.567 1.44.92L61 32.25l1.72-.6A26.695 26.695 0 0 1 71 30.16c1.933-.053 3.853.34 5.61 1.15.508.26.99.569 1.44.92l1.43 1.13 1.73-.6a26.565 26.565 0 0 1 8.25-1.49c1.91-.044 3.805.35 5.54 1.15a8.998 8.998 0 0 1 4.68 6.11l3.32 12.4a108.62 108.62 0 0 1 2.74 37.23 76.973 76.973 0 0 0 .75 21l.18.9-6.46 6.46-52.16 13.98Z" fill="#fff"/><path d="m80.398 32.599-.81.58c-4.47-5.36-15.06-2.66-18.82-1.47-4.92-5.05-14.45-2.36-17.3-1.39-1.94-7.23-3.93-14.67-5.41-20.18-3.28-12.24-20.22-7.7-16.94 4.54 4 14.88 15 55.83 15 55.83-1.41-5.27-5-6.68-10.37-9.33-13-6.47-19.88 8.33-9.11 14.55 24 13.87 34.71 29 39.51 46.93l50.78-13.66a76.328 76.328 0 0 1-.74-20.83 109.703 109.703 0 0 0-2.75-37.36l-3.33-12.43c-3.33-12.38-19.71-5.78-19.71-5.78Z" fill="#fff"/><path d="M96.52 29.429c-6.06-3-14-.68-16.44.18a11.678 11.678 0 0 0-2-1.29c-6.06-3-14-.68-16.45.18a11.884 11.884 0 0 0-2-1.29c-4.72-2.35-10.56-1.45-14.09-.53l-4.65-17.29C38.78 1.499 32-1.101 26.38.409c-5.62 1.51-10.19 7.15-8.08 15l12.14 45.34a20.372 20.372 0 0 0-3.44-2.19c-8.33-4.13-14.85-.93-17.39 3.8-2.54 4.73-1.51 11.84 5.53 15.9 21.31 12.31 33.07 26.24 38.14 45.16l.76 2.83 56.279-15.09-.52-2.67a74.063 74.063 0 0 1-.71-19.93 111.91 111.91 0 0 0-2.83-38.49l-3.32-12.41a12.444 12.444 0 0 0-6.42-8.23Zm4.099 22.17a107.402 107.402 0 0 1 2.66 36.25 77.75 77.75 0 0 0 .35 19.05l-45.5 12.19c-5.89-19.09-18.35-33.35-40.07-45.89-4-2.31-4.49-5.8-3.27-8.08 1.22-2.28 4.42-3.9 9.63-1.32 4.65 2.31 10 7.33 11.18 11.69l4.52-1.22L24 13.919c-1.18-4.39 1.13-7.11 3.94-7.86s6.17.45 7.35 4.84l11.88 44.53 5.65-1.51-5.82-21.6c2.88-.74 7.09-1.32 10 .13a6.601 6.601 0 0 1 3.38 4.55l3.71 13.8 5.65-1.52L66 35.439a16.915 16.915 0 0 0-.69-2c2.87-.76 7.18-1.38 10.13.09a6.59 6.59 0 0 1 3.36 4.51l3.71 13.84 5.65-1.52-3.68-13.81a15.401 15.401 0 0 0-.69-2c2.86-.76 7.15-1.38 10.12.1a6.57 6.57 0 0 1 3.38 4.51l3.33 12.44Z" fill="#31373E"/></g><defs><clipPath id="a"><path fill="#fff" d="M0 0h110.32v134.59H0z"/></clipPath></defs></svg>
